X:1
T:Hillhurst, CMD
T:Hillhurst, CMD
T:Charles Crozat Converse, 1866
T:Public Domain Courtesy of the Cyber Hymnal™
C:Charles Crozat Converse, 1866
Z:Public Domain
Z:Courtesy of the Cyber Hymnal™
%%score ( 1 2 ) ( 3 4 )
L:1/8
Q:1/4=117
M:4/4
K:Ab
V:1 treble 
V:2 treble 
V:3 bass 
V:4 bass 
V:1
 [CE]4 | [CE]2 [Ec]2 [Ec]2 [DB]2 | [DB]2 [CA]2 [CA]2 [CE]2 | [B,E]2 [B,E]2 [Ed]2 [Ec]2 | %4
 [EB]4 [Ed]4 | [Ec]2 [Ec]2 [Ee]2 [Ec]2 | [FB]2 [FA]2 [DF]4 [DF]4 | [CE]2 [CA]2 [DA]2 [DG]2 | %8
 [CA]4 E4 | E2 [GB]2 [GB]2 [EA]2 | [EA]2 [EG]2 [EG]2 E2 | E2 E2 [Ed]2 [Ec]2 | [EB]4 [Ed]4 | %13
 [Ec]2 [Ec]2 [Ee]2 [Ec]2 | [FB]2 [FA]2 [DF]4 [DF]4 | [CE]2 [CA]2 [DA]2 [DG]2 | [CA]4 |] %17
V:2
 x4 | x8 | x8 | x8 | x8 | x8 | x12 | x8 | x4 E4 | E2 x6 | x6 E2 | E2 E2 x4 | x8 | x8 | x12 | x8 | %16
 x4 |] %17
V:3
 [A,,A,]4 | [A,,A,]2 [A,,A,]2 [A,,A,]2 [E,G,]2 | [E,G,]2 [A,,E,]2 [A,,E,]2 A,2 | %3
 [E,G,]2 [E,G,]2 [G,B,]2 A,2 | [E,G,]4 [G,B,]4 | A,2 A,2 [A,,C]2 [A,,A,]2 | %6
 [D,F,]2 [D,A,]2 [D,A,]4 [D,A,]4 | [E,A,]2 [E,A,]2 [E,B,]2 [E,B,]2 | [A,,A,]4 [E,G,]4 | %9
 [E,G,]2 [E,D]2 [E,D]2 [E,C]2 | [E,C]2 [E,B,]2 [E,B,]2 [G,B,]2 | [A,C]2 [A,C]2 [G,B,]2 A,2 | %12
 [E,G,]4 [G,B,]4 | A,2 A,2 [A,,C]2 [A,,A,]2 | [D,F,]2 [D,A,]2 [D,A,]4 [D,A,]4 | %15
 [E,A,]2 [E,A,]2 [E,B,]2 E,2 | [A,,E,]4 |] %17
V:4
 x4 | x8 | x6 A,2 | x6 A,2 | x8 | A,2 A,2 x4 | x12 | x8 | x8 | x8 | x8 | x6 A,2 | x8 | A,2 A,2 x4 | %14
 x12 | x6 E,2 | x4 |] %17

